X: 1365
T: An Raibh Tú Ag An gCarraig?
R: waltz
M: 3/4
K: Eminor
ed|B2 BA Bd|e2 e2 ef|g2 g2 fe|fe d2 e/d/B/A/|
B4 ef|g>g agfe|fedB e/d/B/A/|B2 e2 d/e/|
f>e e2 gf|e>d B2 B/A/B/c/|d2 B2 gf|(3e>dB (3BAG (3AGF|
FE D2 EF|G>G G2 e/d/B/G/|FF F2 z A/F/|E3 D/E/ F>E|E4||

